apps/symbolic/preferences-desktop-accessibility-symbolic.svg

<svg height="24" viewBox="0 0 24 24" width="24" xmlns="http://www.w3.org/2000/svg"><path d="m12 3c .99 0 1.8.81 1.8 1.8s-.81 1.8-1.8 1.8-1.8-.81-1.8-1.8.81-1.8 1.8-1.8zm8.1 6.3h-5.4v11.7h-1.8v-5.4h-1.8v5.4h-1.8v-11.7h-5.4v-1.8h16.2z" fill="#b3b3b3" stroke-width=".9"/></svg>

<?xml version="1.0" encoding="UTF-8" standalone="no"?>
<svg
   xmlns:dc="http://purl.org/dc/elements/1.1/"
   xmlns:cc="http://creativecommons.org/ns#"
   xmlns:rdf="http://www.w3.org/1999/02/22-rdf-syntax-ns#"
   xmlns:svg="http://www.w3.org/2000/svg"
   xmlns="http://www.w3.org/2000/svg"
   xmlns:sodipodi="http://sodipodi.sourceforge.net/DTD/sodipodi-0.dtd"
   xmlns:inkscape="http://www.inkscape.org/namespaces/inkscape"
   width="24"
   height="24"
   viewBox="0 0 24 24"
   id="svg2"
   version="1.1"
   inkscape:version="0.92.1 r15371"
   sodipodi:docname="preferences-desktop-accessibility-symbolic.svg">
  <metadata
     id="metadata12">
    <rdf:RDF>
      <cc:Work
         rdf:about="">
        <dc:format>image/svg+xml</dc:format>
        <dc:type
           rdf:resource="http://purl.org/dc/dcmitype/StillImage" />
      </cc:Work>
    </rdf:RDF>
  </metadata>
  <defs
     id="defs10" />
  <sodipodi:namedview
     pagecolor="#ffffff"
     bordercolor="#666666"
     borderopacity="1"
     objecttolerance="10"
     gridtolerance="10"
     guidetolerance="10"
     inkscape:pageopacity="0"
     inkscape:pageshadow="2"
     inkscape:window-width="640"
     inkscape:window-height="480"
     id="namedview8"
     showgrid="false"
     inkscape:zoom="25.291667"
     inkscape:cx="4.3294893"
     inkscape:cy="12"
     inkscape:current-layer="svg2" />
  <path
     id="path6"
     style="fill:#b3b3b3;fill-opacity:1;stroke-width:0.89999998"
     d="m 12,3 c 0.99,0 1.8,0.81 1.8,1.8 0,0.99 -0.81,1.8 -1.8,1.8 C 11.01,6.6 10.2,5.79 10.2,4.8 10.2,3.81 11.01,3 12,3 Z m 8.1,6.3 H 14.7 V 21 H 12.9 V 15.6 H 11.1 V 21 H 9.3 V 9.3 H 3.9 V 7.5 h 16.2 z"
     inkscape:connector-curvature="0" />
</svg>
